;START_OF_HEADER
;HEADER_VERSION:0.1
;FLAVOR:Griffin
;GENERATOR.NAME:Cura_SteamEngine
;GENERATOR.VERSION:5.6.0
;GENERATOR.BUILD_DATE:2023-11-28
;TARGET_MACHINE.NAME:Ultimaker S5
;EXTRUDER_TRAIN.0.INITIAL_TEMPERATURE:205
;EXTRUDER_TRAIN.0.MATERIAL.VOLUME_USED:1984
;EXTRUDER_TRAIN.0.MATERIAL.GUID:44a029e6-e31b-4c9e-a12f-9282e29a92ff
;EXTRUDER_TRAIN.0.NOZZLE.DIAMETER:0.4
;EXTRUDER_TRAIN.0.NOZZLE.NAME:AA 0.4
;BUILD_PLATE.INITIAL_TEMPERATURE:60
;BUILD_VOLUME.TEMPERATURE:28
;PRINT.TIME:664
;PRINT.GROUPS:1
;PRINT.SIZE.MIN.X:147.579
;PRINT.SIZE.MIN.Y:100.024
;PRINT.SIZE.MIN.Z:0.2
;PRINT.SIZE.MAX.X:182.42
;PRINT.SIZE.MAX.Y:139.975
;PRINT.SIZE.MAX.Z:10
;SLICE_UUID:7e6219e5-9d8a-409a-827e-b68b3621378a
;END_OF_HEADER
;Generated with Cura_SteamEngine 5.6.0
T0
M82 ;absolute extrusion mode

G92 E0
M190 S60
M109 S205
G280 S1
G0 Z20.001
G1 F2700 E-6.5
;LAYER_COUNT:50
;LAYER:0
M106 S255
M204 S1500
M205 X30 Y30
G1 F600 Z2.2
G0 F9000 X181.826 Y135.957 Z2.2
;TYPE:SKIRT
G1 F600 Z0.2
G1 F2700 E0
G1 X182.42 Y133.796 E0.0281
G1 X182.42 Y106.554 E0.36973
G1 X181.908 Y104.362 E0.39796
G1 X180.501 Y102.208 E0.43022
G1 X178.413 Y100.624 E0.46309
G1 X176.24 Y100.024 E0.49136
G1 X170.942 Y100.024 E0.5578
G1 X168.75 Y100.536 E0.58603
G1 X166.596 Y101.943 E0.61829
G1 X165.059 Y103.969 E0.65018
G1 X164.967 Y104.196 E0.65325
G1 X163.668 Y102.208 E0.68303
G1 X161.58 Y100.624 E0.7159
G1 X159.407 Y100.024 E0.74417
G1 X154.109 Y100.024 E0.81061
G1 X151.917 Y100.536 E0.83884
G1 X149.763 Y101.943 E0.8711
G1 X148.179 Y104.031 E0.90397
G1 X147.579 Y106.204 E0.93224
G1 X147.579 Y133.445 E1.27385
G1 X148.091 Y135.637 E1.30208
G1 X149.472 Y137.752 E1.33375
G1 X151.597 Y139.381 E1.36733
G1 X153.758 Y139.975 E1.39544
G1 X159.057 Y139.975 E1.46189
G1 X161.249 Y139.463 E1.49012
G1 X163.364 Y138.082 E1.52179
G1 X164.944 Y136.021 E1.55436
G1 X165.034 Y135.806 E1.55728
G1 X166.305 Y137.752 E1.58643
G1 X168.43 Y139.381 E1.62001
G1 X170.591 Y139.975 E1.64811
G1 X175.89 Y139.975 E1.71456
G1 X178.082 Y139.463 E1.74279
G1 X180.197 Y138.082 E1.77447
G1 X181.826 Y135.957 E1.80804
G0 F9000 X181.46 Y135.778
G1 F2700 X179.923 Y137.783 E1.83973
G1 X177.923 Y139.089 E1.86968
G1 X175.842 Y139.575 E1.89648
G1 X170.646 Y139.575 E1.96164
G1 X168.609 Y139.015 E1.98813
G1 X166.604 Y137.478 E2.01981
G1 X165.298 Y135.478 E2.04977
G1 X165.028 Y134.321 E2.06467
G1 X164.627 Y135.778 E2.08362
G1 X163.09 Y137.783 E2.1153
G1 X161.09 Y139.089 E2.14525
G1 X159.009 Y139.575 E2.17205
G1 X153.813 Y139.575 E2.23721
G1 X151.776 Y139.015 E2.2637
G1 X149.771 Y137.478 E2.29538
G1 X148.465 Y135.478 E2.32534
G1 X147.979 Y133.397 E2.35214
G1 X147.979 Y106.26 E2.69245
G1 X148.545 Y104.211 E2.7191
G1 X150.04 Y102.24 E2.75013
G1 X152.076 Y100.91 E2.78062
G1 X154.157 Y100.424 E2.80742
G1 X159.351 Y100.424 E2.87256
G1 X161.4 Y100.99 E2.89921
G1 X163.371 Y102.485 E2.93024
G1 X164.701 Y104.521 E2.96073
G1 X164.972 Y105.681 E2.97567
G1 X165.378 Y104.211 E2.9948
G1 X166.873 Y102.24 E3.02582
G1 X168.909 Y100.91 E3.05632
G1 X170.99 Y100.424 E3.08312
G1 X176.184 Y100.424 E3.14825
G1 X178.233 Y100.99 E3.17491
G1 X180.204 Y102.485 E3.20593
G1 X181.534 Y104.521 E3.23643
G1 X182.02 Y106.602 E3.26323
G1 X182.02 Y133.741 E3.60356
G1 X181.46 Y135.778 E3.63005
G0 F9000 X181.094 Y135.599
G1 F2700 X181.62 Y133.686 E3.65493
G1 X181.62 Y106.65 E3.99397
G1 X181.16 Y104.68 E4.01934
G1 X179.907 Y102.762 E4.04807
G1 X178.052 Y101.355 E4.07727
G1 X176.129 Y100.824 E4.10229
G1 X171.038 Y100.824 E4.16613
G1 X169.068 Y101.284 E4.1915
G1 X167.15 Y102.537 E4.22023
G1 X165.743 Y104.392 E4.24943
G1 X165.212 Y106.315 E4.27444
G1 X165.212 Y113.148 E4.36013
G1 X164.787 Y113.148 E4.36546
G1 X164.787 Y106.65 E4.44695
G1 X164.327 Y104.68 E4.47232
G1 X163.074 Y102.762 E4.50105
G1 X161.219 Y101.355 E4.53025
G1 X159.296 Y100.824 E4.55526
G1 X154.205 Y100.824 E4.61911
G1 X152.235 Y101.284 E4.64448
G1 X150.317 Y102.537 E4.67321
G1 X148.91 Y104.392 E4.7024
G1 X148.379 Y106.315 E4.72742
G1 X148.379 Y133.349 E5.06644
G1 X148.839 Y135.319 E5.09181
G1 X150.07 Y137.204 E5.12004
G1 X151.955 Y138.649 E5.14982
G1 X153.868 Y139.175 E5.1747
G1 X158.961 Y139.175 E5.23857
G1 X160.931 Y138.715 E5.26394
G1 X162.816 Y137.484 E5.29217
G1 X164.261 Y135.599 E5.32196
G1 X164.787 Y133.686 E5.34684
G1 X164.787 Y128.654 E5.40994
G1 X165.212 Y128.654 E5.41527
G1 X165.212 Y133.349 E5.47415
G1 X165.672 Y135.319 E5.49952
G1 X166.903 Y137.204 E5.52775
G1 X168.788 Y138.649 E5.55754
G1 X170.701 Y139.175 E5.58242
G1 X175.794 Y139.175 E5.64628
G1 X177.764 Y138.715 E5.67165
G1 X179.649 Y137.484 E5.69989
G1 X181.094 Y135.599 E5.72967
G0 F9000 X180.728 Y135.42
G1 F2700 X179.375 Y137.185 E5.75756
G1 X177.605 Y138.341 E5.78407
G1 X175.746 Y138.775 E5.80801
G1 X170.756 Y138.775 E5.87059
G1 X168.967 Y138.283 E5.89385
G1 X167.202 Y136.93 E5.92174
G1 X166.046 Y135.16 E5.94825
G1 X165.612 Y133.301 E5.97219
G1 X165.612 Y128.254 E6.03548
G1 X164.387 Y128.254 E6.05085
G1 X164.387 Y133.631 E6.11828
G1 X163.895 Y135.42 E6.14154
G1 X162.542 Y137.185 E6.16943
G1 X160.772 Y138.341 E6.19594
G1 X158.913 Y138.775 E6.21988
G1 X153.923 Y138.775 E6.28246
G1 X152.134 Y138.283 E6.30573
G1 X150.369 Y136.93 E6.33362
G1 X149.213 Y135.16 E6.36013
G1 X148.779 Y133.301 E6.38407
G1 X148.779 Y106.371 E6.72178
G1 X149.276 Y104.572 E6.74518
G1 X150.594 Y102.834 E6.77254
G1 X152.394 Y101.658 E6.7995
G1 X154.253 Y101.224 E6.82344
G1 X159.24 Y101.224 E6.88598
G1 X161.039 Y101.721 E6.90938
G1 X162.777 Y103.039 E6.93674
G1 X163.953 Y104.839 E6.9637
G1 X164.387 Y106.698 E6.98764
G1 X164.387 Y113.548 E7.07354
G1 X165.612 Y113.548 E7.0889
G1 X165.612 Y106.371 E7.17891
G1 X166.109 Y104.572 E7.20231
G1 X167.427 Y102.834 E7.22966
G1 X169.227 Y101.658 E7.25663
G1 X171.086 Y101.224 E7.28057
G1 X176.073 Y101.224 E7.34311
G1 X177.872 Y101.721 E7.36651
G1 X179.61 Y103.039 E7.39386
G1 X180.786 Y104.839 E7.42083
G1 X181.22 Y106.698 E7.44477
G1 X181.22 Y133.631 E7.78252
G1 X180.728 Y135.42 E7.80578
G0 F9000 X180.362 Y135.241
G1 F2700 X180.82 Y133.576 E7.82744
G1 X180.82 Y106.742 E8.16395
G1 X180.413 Y105.001 E8.18637
G1 X179.313 Y103.316 E8.2116
G1 X177.691 Y102.086 E8.23713
G1 X176.018 Y101.624 E8.2589
G1 X171.13 Y101.624 E8.32019
G1 X169.389 Y102.031 E8.34262
G1 X167.704 Y103.131 E8.36785
G1 X166.474 Y104.753 E8.39338
G1 X166.012 Y106.426 E8.41514
G1 X166.012 Y113.948 E8.50947
G1 X163.987 Y113.948 E8.53487
G1 X163.987 Y106.742 E8.62523
G1 X163.58 Y105.001 E8.64765
G1 X162.48 Y103.316 E8.67289
G1 X160.858 Y102.086 E8.69842
G1 X159.185 Y101.624 E8.72018
G1 X154.297 Y101.624 E8.78148
G1 X152.556 Y102.031 E8.8039
G1 X150.871 Y103.131 E8.82913
G1 X149.641 Y104.753 E8.85466
G1 X149.179 Y106.426 E8.87643
G1 X149.179 Y133.257 E9.2129
G1 X149.586 Y134.998 E9.23532
G1 X150.668 Y136.656 E9.26015
G1 X152.313 Y137.917 E9.28614
G1 X153.978 Y138.375 E9.30779
G1 X158.869 Y138.375 E9.36913
G1 X160.61 Y137.968 E9.39155
G1 X162.268 Y136.886 E9.41638
G1 X163.529 Y135.241 E9.44237
G1 X163.987 Y133.576 E9.46403
G1 X163.987 Y127.854 E9.53578
G1 X166.012 Y127.854 E9.56118
G1 X166.012 Y133.257 E9.62893
G1 X166.419 Y134.998 E9.65135
G1 X167.501 Y136.656 E9.67618
G1 X169.146 Y137.917 E9.70217
G1 X170.811 Y138.375 E9.72383
G1 X175.702 Y138.375 E9.78516
G1 X177.443 Y137.968 E9.80759
G1 X179.101 Y136.886 E9.83241
G1 X180.362 Y135.241 E9.85841
G0 F9000 X179.996 Y135.062
G1 F2700 X178.827 Y136.587 E9.8825
G1 X177.284 Y137.594 E9.90561
G1 X175.654 Y137.975 E9.9266
G1 X170.866 Y137.975 E9.98664
G1 X169.325 Y137.551 E10.00669
G1 X167.8 Y136.382 E10.03078
G1 X166.793 Y134.839 E10.05389
G1 X166.412 Y133.209 E10.07488
G1 X166.412 Y127.454 E10.14705
G1 X163.587 Y127.454 E10.18248
G1 X163.587 Y133.521 E10.25856
G1 X163.163 Y135.062 E10.2786
G1 X161.994 Y136.587 E10.3027
G1 X160.451 Y137.594 E10.3258
G1 X158.821 Y137.975 E10.3468
G1 X154.033 Y137.975 E10.40684
G1 X152.492 Y137.551 E10.42688
G1 X150.967 Y136.382 E10.45098
G1 X149.96 Y134.839 E10.47408
G1 X149.579 Y133.209 E10.49508
G1 X149.579 Y106.482 E10.83024
G1 X150.007 Y104.933 E10.8504
G1 X151.148 Y103.428 E10.87408
G1 X152.715 Y102.405 E10.89755
G1 X154.345 Y102.024 E10.91854
G1 X159.129 Y102.024 E10.97853
G1 X160.678 Y102.452 E10.99869
G1 X162.183 Y103.593 E11.02237
G1 X163.206 Y105.16 E11.04584
G1 X163.587 Y106.79 E11.06683
G1 X163.587 Y114.348 E11.16161
G1 X166.412 Y114.348 E11.19704
G1 X166.412 Y106.482 E11.29568
G1 X166.84 Y104.933 E11.31583
G1 X167.981 Y103.428 E11.33952
G1 X169.548 Y102.405 E11.36298
G1 X171.178 Y102.024 E11.38397
G1 X175.962 Y102.024 E11.44397
G1 X177.511 Y102.452 E11.46412
G1 X179.016 Y103.593 E11.4878
G1 X180.039 Y105.16 E11.51127
G1 X180.42 Y106.79 E11.53226
G1 X180.42 Y133.521 E11.86748
G1 X179.996 Y135.062 E11.88752
G0 F9000 X179.63 Y134.883
G1 F2700 X178.553 Y136.288 E11.90972
G1 X177.125 Y137.22 E11.93111
G1 X175.606 Y137.575 E11.95067
G1 X170.921 Y137.575 E12.00942
G1 X169.504 Y137.185 E12.02785
G1 X168.099 Y136.108 E12.05005
G1 X167.167 Y134.68 E12.07144
G1 X166.812 Y133.161 E12.091
G1 X166.812 Y127.054 E12.16758
G1 X163.187 Y127.054 E12.21304
G1 X163.187 Y133.466 E12.29345
G1 X162.797 Y134.883 E12.31188
G1 X161.72 Y136.288 E12.33408
G1 X160.292 Y137.22 E12.35547
G1 X158.773 Y137.575 E12.37503
G1 X154.088 Y137.575 E12.43378
G1 X152.671 Y137.185 E12.45221
G1 X151.266 Y136.108 E12.47441
G1 X150.334 Y134.68 E12.49579
G1 X149.979 Y133.161 E12.51536
G1 X149.979 Y106.537 E12.84923
G1 X150.372 Y105.114 E12.86774
G1 X151.425 Y103.725 E12.8896
G1 X152.874 Y102.779 E12.9113
G1 X154.393 Y102.424 E12.93087
G1 X159.074 Y102.424 E12.98957
G1 X160.497 Y102.817 E13.00808
G1 X161.886 Y103.87 E13.02994
G1 X162.832 Y105.319 E13.05164
G1 X163.187 Y106.838 E13.0712
G1 X163.187 Y114.748 E13.17039
G1 X166.812 Y114.748 E13.21585
G1 X166.812 Y106.537 E13.31882
G1 X167.205 Y105.114 E13.33734
G1 X168.258 Y103.725 E13.35919
G1 X169.707 Y102.779 E13.38089
G1 X171.226 Y102.424 E13.40046
G1 X175.907 Y102.424 E13.45916
G1 X177.33 Y102.817 E13.47767
G1 X178.719 Y103.87 E13.49953
G1 X179.665 Y105.319 E13.52123
G1 X180.02 Y106.838 E13.54079
G1 X180.02 Y133.466 E13.87472
G1 X179.63 Y134.883 E13.89315
G0 F9000 X179.264 Y134.704
G1 F2700 X178.279 Y135.989 E13.91345
G1 X176.966 Y136.846 E13.93311
G1 X175.558 Y137.175 E13.95125
G1 X170.976 Y137.175 E14.00871
G1 X169.683 Y136.819 E14.02552
G1 X168.398 Y135.834 E14.04583
G1 X167.541 Y134.521 E14.06549
G1 X167.212 Y133.113 E14.08362
G1 X167.212 Y126.654 E14.16462
G1 X162.787 Y126.654 E14.22011
G1 X162.787 Y133.411 E14.30485
G1 X162.431 Y134.704 E14.32167
G1 X161.446 Y135.989 E14.34197
G1 X160.133 Y136.846 E14.36163
G1 X158.725 Y137.175 E14.37977
G1 X154.143 Y137.175 E14.43723
G1 X152.85 Y136.819 E14.45404
G1 X151.565 Y135.834 E14.47435
G1 X150.708 Y134.521 E14.49401
G1 X150.379 Y133.113 E14.51214
G1 X150.379 Y106.593 E14.84471
G1 X150.738 Y105.294 E14.86161
G1 X151.702 Y104.022 E14.88163
G1 X153.033 Y103.153 E14.90156
G1 X154.441 Y102.824 E14.91969
G1 X159.018 Y102.824 E14.97709
G1 X160.317 Y103.183 E14.99399
G1 X161.589 Y104.147 E15.01401
G1 X162.458 Y105.478 E15.03394
G1 X162.787 Y106.886 E15.05207
G1 X162.787 Y115.148 E15.15568
G1 X167.212 Y115.148 E15.21117
G1 X167.212 Y106.593 E15.31846
G1 X167.571 Y105.294 E15.33536
G1 X168.535 Y104.022 E15.35537
G1 X169.866 Y103.153 E15.3753
G1 X171.274 Y102.824 E15.39344
G1 X175.851 Y102.824 E15.45083
G1 X177.15 Y103.183 E15.46773
G1 X178.422 Y104.147 E15.48775
G1 X179.291 Y105.478 E15.50768
G1 X179.62 Y106.886 E15.52582
G1 X179.62 Y133.411 E15.85845
G1 X179.264 Y134.704 E15.87527
G0 F9000 X178.898 Y134.525
G1 F2700 X178.005 Y135.69 E15.89367
G1 X176.807 Y136.472 E15.91162
G1 X175.51 Y136.775 E15.92832
G1 X171.031 Y136.775 E15.98449
G1 X169.862 Y136.453 E15.99969
G1 X168.697 Y135.56 E16.0181
G1 X167.915 Y134.362 E16.03604
G1 X167.612 Y133.065 E16.05274
G1 X167.612 Y126.254 E16.13816
G1 X162.387 Y126.254 E16.20368
G1 X162.387 Y133.356 E16.29274
G1 X162.065 Y134.525 E16.30795
G1 X161.172 Y135.69 E16.32635
G1 X159.974 Y136.472 E16.3443
G1 X158.677 Y136.775 E16.361
G1 X154.198 Y136.775 E16.41717
G1 X153.029 Y136.453 E16.43237
G1 X151.864 Y135.56 E16.45078
G1 X151.082 Y134.362 E16.46872
G1 X150.779 Y133.065 E16.48542
G1 X150.779 Y106.648 E16.8167
G1 X151.103 Y105.475 E16.83196
G1 X151.979 Y104.319 E16.85015
G1 X153.192 Y103.527 E16.86832
G1 X154.489 Y103.224 E16.88502
G1 X158.963 Y103.224 E16.94113
G1 X160.136 Y103.548 E16.95639
G1 X161.292 Y104.424 E16.97458
G1 X162.084 Y105.637 E16.99274
G1 X162.387 Y106.934 E17.00945
G1 X162.387 Y115.548 E17.11747
G1 X167.612 Y115.548 E17.18299
G1 X167.612 Y106.648 E17.2946
G1 X167.936 Y105.475 E17.30986
G1 X168.812 Y104.319 E17.32805
G1 X170.025 Y103.527 E17.34622
G1 X171.322 Y103.224 E17.36292
G1 X175.796 Y103.224 E17.41903
G1 X176.969 Y103.548 E17.43429
G1 X178.125 Y104.424 E17.45248
G1 X178.917 Y105.637 E17.47064
G1 X179.22 Y106.934 E17.48735
G1 X179.22 Y133.356 E17.81869
G1 X178.898 Y134.525 E17.83389
G0 F9000 X178.532 Y134.346
G1 F2700 X177.731 Y135.391 E17.8504
G1 X176.648 Y136.098 E17.86662
G1 X175.462 Y136.375 E17.8819
G1 X171.086 Y136.375 E17.93677
G1 X170.041 Y136.087 E17.95037
G1 X168.996 Y135.286 E17.96688
G1 X168.289 Y134.203 E17.9831
G1 X168.012 Y133.017 E17.99837
G1 X168.012 Y125.854 E18.0882
G1 X161.987 Y125.854 E18.16375
G1 X161.987 Y133.301 E18.25714
G1 X161.699 Y134.346 E18.27073
G1 X160.898 Y135.391 E18.28725
G1 X159.815 Y136.098 E18.30346
G1 X158.629 Y136.375 E18.31874
G1 X154.253 Y136.375 E18.37361
G1 X153.208 Y136.087 E18.38721
G1 X152.163 Y135.286 E18.40372
G1 X151.456 Y134.203 E18.41994
G1 X151.179 Y133.017 E18.43521
G1 X151.179 Y106.703 E18.7652
G1 X151.468 Y105.656 E18.77882
G1 X152.256 Y104.616 E18.79518
G1 X153.351 Y103.901 E18.81158
G1 X154.537 Y103.624 E18.82686
G1 X158.908 Y103.624 E18.88167
G1 X159.955 Y103.913 E18.89529
G1 X160.995 Y104.701 E18.91165
G1 X161.71 Y105.796 E18.92805
G1 X161.987 Y106.982 E18.94333
G1 X161.987 Y115.948 E19.05576
G1 X168.012 Y115.948 E19.13132
G1 X168.012 Y106.703 E19.24725
G1 X168.301 Y105.656 E19.26088
G1 X169.089 Y104.616 E19.27724
G1 X170.184 Y103.901 E19.29364
G1 X171.37 Y103.624 E19.30891
G1 X175.741 Y103.624 E19.36373
G1 X176.788 Y103.913 E19.37735
G1 X177.828 Y104.701 E19.39371
G1 X178.543 Y105.796 E19.41011
G1 X178.82 Y106.982 E19.42538
G1 X178.82 Y133.301 E19.75543
G1 X178.532 Y134.346 E19.76903
G0 F9000 X178.166 Y134.167
G1 F2700 X177.457 Y135.092 E19.78364
G1 X176.489 Y135.724 E19.79814
G1 X175.414 Y135.975 E19.81198
G1 X171.141 Y135.975 E19.86557
G1 X170.22 Y135.721 E19.87755
G1 X169.295 Y135.012 E19.89216
G1 X168.663 Y134.044 E19.90666
G1 X168.412 Y132.969 E19.9205
G1 X168.412 Y125.454 E20.01474
G1 X161.587 Y125.454 E20.10033
G1 X161.587 Y133.246 E20.19805
G1 X161.333 Y134.167 E20.21003
G1 X160.624 Y135.092 E20.22464
G1 X159.656 Y135.724 E20.23914
G1 X158.581 Y135.975 E20.25298
G1 X154.308 Y135.975 E20.30657
G1 X153.387 Y135.721 E20.31855
G1 X152.462 Y135.012 E20.33316
G1 X151.83 Y134.044 E20.34766
G1 X151.579 Y132.969 E20.36151
G1 X151.579 Y106.758 E20.6902
G1 X151.833 Y105.837 E20.70218
G1 X152.533 Y104.913 E20.71672
G1 X153.51 Y104.275 E20.73135
G1 X154.585 Y104.024 E20.7452
G1 X158.853 Y104.024 E20.79872
G1 X159.774 Y104.278 E20.8107
G1 X160.698 Y104.978 E20.82524
G1 X161.336 Y105.955 E20.83987
G1 X161.587 Y107.03 E20.85371
G1 X161.587 Y116.348 E20.97056
G1 X168.412 Y116.348 E21.05615
G1 X168.412 Y106.758 E21.17641
G1 X168.666 Y105.837 E21.18839
G1 X169.366 Y104.913 E21.20293
G1 X170.343 Y104.275 E21.21756
G1 X171.418 Y104.024 E21.23141
G1 X175.686 Y104.024 E21.28493
G1 X176.607 Y104.278 E21.29691
G1 X177.531 Y104.978 E21.31145
G1 X178.169 Y105.955 E21.32608
G1 X178.42 Y107.03 E21.33992
